icons/relative-to-ground-elevation-32.svg

<svg xmlns="http://www.w3.org/2000/svg" viewBox="0 0 32 32"><path fill="none" d="M0 0h32v32H0z"/><path d="M17 22h-1v-2h1zm0 1h-1v2h1zm-1 5h1v-2h-1zm1-11h-1v2h1zm0-3h-1v2h1zm-3.9-4.5a3.4 3.4 0 1 1 3.4 3.4 3.4 3.4 0 0 1-3.4-3.4zm.971 0A2.429 2.429 0 1 0 16.5 7.071 2.431 2.431 0 0 0 14.071 9.5zM3 29v-3h3v-1H3v-3h3v-1H3v-3h3v-1H3v-3h3v-1H3v-3h3V9H3V6h3V5H3V2H2v28h28v-1z"/></svg>

<svg id="icons" xmlns="http://www.w3.org/2000/svg" viewBox="0 0 32 32"><defs><style>.cls-1{fill:none;}</style></defs><rect class="cls-1" width="32" height="32"/><path d="M17,22H16V20h1Zm0,1H16v2h1Zm-1,5h1V26H16Zm1-11H16v2h1Zm0-3H16v2h1ZM13.1,9.5a3.4,3.4,0,1,1,3.4,3.4A3.40022,3.40022,0,0,1,13.1,9.5Zm.97143,0A2.42859,2.42859,0,1,0,16.5,7.07141,2.43115,2.43115,0,0,0,14.07141,9.5ZM3,29V26H6V25H3V22H6V21H3V18H6V17H3V14H6V13H3V10H6V9H3V6H6V5H3V2H2V30H30V29Z"/></svg>
